X: 3127
T: Beaumont Rag
R: reel
M: 4/4
K: Fmajor
bab(e ga)gf|efe(d cd)eg|aga(e fg)fc|dc=Bd c2 Ac|
cde(f g^f)ge|age(d cd)cE|FGAc- c(dc)A|dcA(d cd)cA|

